X: 10801
Q: "Slow strathspey time."
M: C
L: 1/8
K: Em
(e/f/) |\
{ef}gee>Tf geeb | g>e{e}d>TB {^c}d2Tde/f/ |\
geef gee>f | Tg>a {ga}b>g e2e>f |
gee>f geeb | {e}g>e e/d/c/B/ {B}d2 Tde/f/ |
{e}gee>f ge eB/^d/ | e>B=d>F {F}E2E>F !f!|\


